li/brand-javascript.svg

<svg role="img" focusable="false" aria-hidden="true" xmlns="http://www.w3.org/2000/svg" viewBox="0 0 14 14" height="1em" width="1em">
  <path d="M 1,1 13,1 13,13 1,13 1,1 Z m 11.017,9.138 C 11.9295,9.5905 11.573,9.1305 10.5155,8.7015 10.1475,8.529 9.7385,8.409 9.617,8.1315 9.5715,7.9665 9.5645,7.8765 9.594,7.779 c 0.075,-0.323 0.4575,-0.42 0.7575,-0.33 0.195,0.06 0.375,0.21 0.488,0.45 0.517,-0.338 0.517,-0.338 0.8775,-0.5625 C 11.582,7.1265 11.515,7.036 11.424,6.9465 11.109,6.594 10.6895,6.414 10.007,6.4295 L 9.6545,6.474 C 9.3165,6.5565 8.9945,6.7365 8.7995,6.9765 8.2295,7.622 8.394,8.747 9.084,9.212 c 0.6825,0.51 1.6805,0.622 1.808,1.1025 0.12,0.585 -0.435,0.7725 -0.983,0.705 -0.4055,-0.09 -0.63,-0.293 -0.8775,-0.668 l -0.915,0.5255 c 0.105,0.24 0.225,0.3445 0.405,0.5545 0.87,0.878 3.045,0.833 3.4355,-0.502 0.0145,-0.045 0.12,-0.3525 0.037,-0.825 l 0.023,0.0335 z m -4.4915,-3.6225 -1.124,0 c 0,0.969 -0.0045,1.932 -0.0045,2.9025 0,0.616 0.0315,1.1815 -0.069,1.3555 -0.165,0.3445 -0.59,0.3005 -0.783,0.24 C 5.347,10.9155 5.2465,10.7805 5.13,10.586 5.0985,10.5335 5.075,10.488 5.0665,10.488 L 4.154,11.0505 c 0.1525,0.315 0.375,0.586 0.662,0.7585 0.4275,0.255 1.002,0.3375 1.6035,0.2025 0.3915,-0.113 0.729,-0.3455 0.9055,-0.7055 0.255,-0.465 0.201,-1.035 0.1985,-1.673 0.006,-1.027 0,-2.0545 0,-3.0895 l 0.002,-0.028 z"/>
</svg>

<svg aria-hidden="true" xmlns="http://www.w3.org/2000/svg" viewBox="0 0 14 14" height="1em" width="1em">
  <path d="M1 1h12v12H1V1Zm11.017 9.138c-.087-.547-.444-1.008-1.502-1.437-.367-.172-.777-.292-.898-.57-.046-.165-.053-.255-.023-.352.075-.323.458-.42.757-.33.195.06.375.21.488.45.517-.338.517-.338.878-.563a2.08 2.08 0 0 0-.293-.39c-.315-.352-.734-.532-1.417-.516l-.352.044c-.338.082-.66.263-.855.502-.57.646-.406 1.771.284 2.236.682.51 1.68.622 1.808 1.103.12.584-.435.772-.983.704-.406-.09-.63-.293-.878-.668l-.915.526c.105.24.225.344.405.554.87.879 3.045.834 3.436-.501.014-.046.12-.353.037-.826l.023.034zM7.525 6.515H6.401c0 .97-.004 1.932-.004 2.903 0 .616.031 1.181-.069 1.355-.165.345-.59.301-.783.24-.198-.098-.298-.232-.415-.427-.032-.053-.055-.098-.064-.098l-.912.563c.152.314.375.585.662.758.427.255 1.002.338 1.603.203.392-.114.73-.346.906-.706.255-.465.201-1.035.198-1.673.006-1.027 0-2.054 0-3.09l.002-.028z"/>
</svg>
